X: 110201
T: TULLOCHGORUM
Q: "Strathspey."
R:  Strathspey.
%R: strathspey
B: James Kerr "Merry Melodies" v.1 p.10 s.2 #1
Z: 2017 John Chambers <jc:trillian.mit.edu>
M: C
L: 1/8
K: G
uc !segno!|:\
B<G d>G c<=F A>c | B<G d>G B>c d<g |\
B<G d>G c<=F A>c | B<G d>G (3(ABc) (B>A) :|\
G<g d>ue v=f>vF A2 | G>gd>g B>gd>g |
B<g d>e =f>F A2 | G<g d>c (c>B)(A>B) |\
G<g d>e =f>F A2 | G<g d>e v=f>vgua>ug |\
v=f>uefd c<=F A>a | g>d g<b e<g d>c |]

%%sep 1 1 500
%%sep 1 1 500

